net_optim/media/potential.svg

<svg xmlns="http://www.w3.org/2000/svg" xmlns:xlink="http://www.w3.org/1999/xlink" width="500" height="345" version="1.1"><defs><clipPath id="PCZNqGEOCZXi"><path fill="none" stroke="none" d="M 0 0 L 500 0 L 500 345 L 0 345 L 0 0 Z"/></clipPath></defs><g clip-path="url(#PCZNqGEOCZXi)" transform="scale(1,1)"><g><rect width="500" height="345" x="0" y="0" fill="#FFF" fill-opacity="1" stroke="none"/><path fill="none" stroke="#000" stroke-linecap="round" stroke-linejoin="round" stroke-miterlimit="10" stroke-opacity=".698" stroke-width="2.5" d="M 129 173.00000000000003 L 216.9791847198287 260.97918471982877" paint-order="fill stroke markers"/><path fill="#000" fill-opacity=".698" fill-rule="evenodd" stroke="none" d="M 229 273.00000000000006 L 213.9739808997859 263.9843885398716 L 219.98438853987153 257.97398089978594 Z" paint-order="stroke fill markers"/><text x="182" y="219" fill="none" stroke="#FFF" stroke-linecap="round" stroke-linejoin="bevel" stroke-miterlimit="10" stroke-opacity="1" stroke-width="3" dominant-baseline="alphabetic" font-family="geogebra-sans-serif, sans-serif" font-size="16" font-style="normal" font-weight="normal" text-anchor="start" text-decoration="normal">y</text><text x="182" y="219" fill="#000" fill-opacity="1" stroke="none" dominant-baseline="alphabetic" font-family="geogebra-sans-serif, sans-serif" font-size="16" font-style="normal" font-weight="normal" text-anchor="start" text-decoration="normal">y</text><text x="191" y="226" fill="none" stroke="#FFF" stroke-linecap="round" stroke-linejoin="bevel" stroke-miterlimit="10" stroke-opacity="1" stroke-width="3" dominant-baseline="alphabetic" font-family="geogebra-sans-serif, sans-serif" font-size="14" font-style="normal" font-weight="normal" text-anchor="start" text-decoration="normal">12</text><text x="191" y="226" fill="#000" fill-opacity="1" stroke="none" dominant-baseline="alphabetic" font-family="geogebra-sans-serif, sans-serif" font-size="14" font-style="normal" font-weight="normal" text-anchor="start" text-decoration="normal">12</text><path fill="none" stroke="#000" stroke-linecap="round" stroke-linejoin="round" stroke-miterlimit="10" stroke-opacity=".698" stroke-width="2.5" d="M 229 273.00000000000006 L 316.9791847198287 185.02081528017135" paint-order="fill stroke markers"/><path fill="#000" fill-opacity=".698" fill-rule="evenodd" stroke="none" d="M 329 173.00000000000003 L 319.98438853987153 188.02601910021417 L 313.9739808997859 182.01561146012853 Z" paint-order="stroke fill markers"/><text x="275" y="219" fill="none" stroke="#FFF" stroke-linecap="round" stroke-linejoin="bevel" stroke-miterlimit="10" stroke-opacity="1" stroke-width="3" dominant-baseline="alphabetic" font-family="geogebra-sans-serif, sans-serif" font-size="16" font-style="normal" font-weight="normal" text-anchor="start" text-decoration="normal">y</text><text x="275" y="219" fill="#000" fill-opacity="1" stroke="none" dominant-baseline="alphabetic" font-family="geogebra-sans-serif, sans-serif" font-size="16" font-style="normal" font-weight="normal" text-anchor="start" text-decoration="normal">y</text><text x="284" y="226" fill="none" stroke="#FFF" stroke-linecap="round" stroke-linejoin="bevel" stroke-miterlimit="10" stroke-opacity="1" stroke-width="3" dominant-baseline="alphabetic" font-family="geogebra-sans-serif, sans-serif" font-size="14" font-style="normal" font-weight="normal" text-anchor="start" text-decoration="normal">24</text><text x="284" y="226" fill="#000" fill-opacity="1" stroke="none" dominant-baseline="alphabetic" font-family="geogebra-sans-serif, sans-serif" font-size="14" font-style="normal" font-weight="normal" text-anchor="start" text-decoration="normal">24</text><path fill="none" stroke="#000" stroke-linecap="round" stroke-linejoin="round" stroke-miterlimit="10" stroke-opacity=".698" stroke-width="2.5" d="M 129 173.00000000000003 L 216.97918471982868 85.02081528017133" paint-order="fill stroke markers"/><path fill="#000" fill-opacity=".698" fill-rule="evenodd" stroke="none" d="M 229 73.00000000000003 L 219.9843885398715 88.02601910021416 L 213.97398089978586 82.01561146012851 Z" paint-order="stroke fill markers"/><text x="175" y="119" fill="none" stroke="#FFF" stroke-linecap="round" stroke-linejoin="bevel" stroke-miterlimit="10" stroke-opacity="1" stroke-width="3" dominant-baseline="alphabetic" font-family="geogebra-sans-serif, sans-serif" font-size="16" font-style="normal" font-weight="normal" text-anchor="start" text-decoration="normal">y</text><text x="175" y="119" fill="#000" fill-opacity="1" stroke="none" dominant-baseline="alphabetic" font-family="geogebra-sans-serif, sans-serif" font-size="16" font-style="normal" font-weight="normal" text-anchor="start" text-decoration="normal">y</text><text x="184" y="126" fill="none" stroke="#FFF" stroke-linecap="round" stroke-linejoin="bevel" stroke-miterlimit="10" stroke-opacity="1" stroke-width="3" dominant-baseline="alphabetic" font-family="geogebra-sans-serif, sans-serif" font-size="14" font-style="normal" font-weight="normal" text-anchor="start" text-decoration="normal">13</text><text x="184" y="126" fill="#000" fill-opacity="1" stroke="none" dominant-baseline="alphabetic" font-family="geogebra-sans-serif, sans-serif" font-size="14" font-style="normal" font-weight="normal" text-anchor="start" text-decoration="normal">13</text><path fill="none" stroke="#000" stroke-linecap="round" stroke-linejoin="round" stroke-miterlimit="10" stroke-opacity=".698" stroke-width="2.5" d="M 229 73.00000000000003 L 316.9791847198287 160.9791847198287" paint-order="fill stroke markers"/><path fill="#000" fill-opacity=".698" fill-rule="evenodd" stroke="none" d="M 329 173.00000000000003 L 313.9739808997859 163.98438853987153 L 319.98438853987153 157.9739808997859 Z" paint-order="stroke fill markers"/><text x="282" y="119" fill="none" stroke="#FFF" stroke-linecap="round" stroke-linejoin="bevel" stroke-miterlimit="10" stroke-opacity="1" stroke-width="3" dominant-baseline="alphabetic" font-family="geogebra-sans-serif, sans-serif" font-size="16" font-style="normal" font-weight="normal" text-anchor="start" text-decoration="normal">y</text><text x="282" y="119" fill="#000" fill-opacity="1" stroke="none" dominant-baseline="alphabetic" font-family="geogebra-sans-serif, sans-serif" font-size="16" font-style="normal" font-weight="normal" text-anchor="start" text-decoration="normal">y</text><text x="291" y="126" fill="none" stroke="#FFF" stroke-linecap="round" stroke-linejoin="bevel" stroke-miterlimit="10" stroke-opacity="1" stroke-width="3" dominant-baseline="alphabetic" font-family="geogebra-sans-serif, sans-serif" font-size="14" font-style="normal" font-weight="normal" text-anchor="start" text-decoration="normal">34</text><text x="291" y="126" fill="#000" fill-opacity="1" stroke="none" dominant-baseline="alphabetic" font-family="geogebra-sans-serif, sans-serif" font-size="14" font-style="normal" font-weight="normal" text-anchor="start" text-decoration="normal">34</text><path fill="#4D4DFF" fill-opacity="1" stroke="none" d="M 134 173.00000000000003 C 134 175.761423749154 131.76142374915398 178.00000000000003 129 178.00000000000003 C 126.23857625084604 178.00000000000003 124 175.761423749154 124 173.00000000000003 C 124 170.23857625084605 126.23857625084604 168.00000000000003 129 168.00000000000003 C 131.76142374915398 168.00000000000003 134 170.23857625084605 134 173.00000000000003 Z" paint-order="stroke fill markers"/><path fill="none" stroke="#000" stroke-linecap="round" stroke-linejoin="round" stroke-miterlimit="10" stroke-opacity="1" d="M 134 173.00000000000003 C 134 175.761423749154 131.76142374915398 178.00000000000003 129 178.00000000000003 C 126.23857625084604 178.00000000000003 124 175.761423749154 124 173.00000000000003 C 124 170.23857625084605 126.23857625084604 168.00000000000003 129 168.00000000000003 C 131.76142374915398 168.00000000000003 134 170.23857625084605 134 173.00000000000003 Z" paint-order="fill stroke markers"/><text x="133" y="163" fill="none" stroke="#FFF" stroke-linecap="round" stroke-linejoin="bevel" stroke-miterlimit="10" stroke-opacity="1" stroke-width="3" dominant-baseline="alphabetic" font-family="geogebra-sans-serif, sans-serif" font-size="16" font-style="normal" font-weight="normal" text-anchor="start" text-decoration="normal">u</text><text x="133" y="163" fill="#4D4DFF" fill-opacity="1" stroke="none" dominant-baseline="alphabetic" font-family="geogebra-sans-serif, sans-serif" font-size="16" font-style="normal" font-weight="normal" text-anchor="start" text-decoration="normal">u</text><text x="143" y="170" fill="none" stroke="#FFF" stroke-linecap="round" stroke-linejoin="bevel" stroke-miterlimit="10" stroke-opacity="1" stroke-width="3" dominant-baseline="alphabetic" font-family="geogebra-sans-serif, sans-serif" font-size="14" font-style="normal" font-weight="normal" text-anchor="start" text-decoration="normal">1</text><text x="143" y="170" fill="#4D4DFF" fill-opacity="1" stroke="none" dominant-baseline="alphabetic" font-family="geogebra-sans-serif, sans-serif" font-size="14" font-style="normal" font-weight="normal" text-anchor="start" text-decoration="normal">1</text><path fill="#4D4DFF" fill-opacity="1" stroke="none" d="M 234 273.00000000000006 C 234 275.761423749154 231.76142374915398 278.00000000000006 229 278.00000000000006 C 226.23857625084602 278.00000000000006 224 275.761423749154 224 273.00000000000006 C 224 270.2385762508461 226.23857625084602 268.00000000000006 229 268.00000000000006 C 231.76142374915398 268.00000000000006 234 270.2385762508461 234 273.00000000000006 Z" paint-order="stroke fill markers"/><path fill="none" stroke="#000" stroke-linecap="round" stroke-linejoin="round" stroke-miterlimit="10" stroke-opacity="1" d="M 234 273.00000000000006 C 234 275.761423749154 231.76142374915398 278.00000000000006 229 278.00000000000006 C 226.23857625084602 278.00000000000006 224 275.761423749154 224 273.00000000000006 C 224 270.2385762508461 226.23857625084602 268.00000000000006 229 268.00000000000006 C 231.76142374915398 268.00000000000006 234 270.2385762508461 234 273.00000000000006 Z" paint-order="fill stroke markers"/><text x="233" y="263" fill="none" stroke="#FFF" stroke-linecap="round" stroke-linejoin="bevel" stroke-miterlimit="10" stroke-opacity="1" stroke-width="3" dominant-baseline="alphabetic" font-family="geogebra-sans-serif, sans-serif" font-size="16" font-style="normal" font-weight="normal" text-anchor="start" text-decoration="normal">u</text><text x="233" y="263" fill="#4D4DFF" fill-opacity="1" stroke="none" dominant-baseline="alphabetic" font-family="geogebra-sans-serif, sans-serif" font-size="16" font-style="normal" font-weight="normal" text-anchor="start" text-decoration="normal">u</text><text x="243" y="270" fill="none" stroke="#FFF" stroke-linecap="round" stroke-linejoin="bevel" stroke-miterlimit="10" stroke-opacity="1" stroke-width="3" dominant-baseline="alphabetic" font-family="geogebra-sans-serif, sans-serif" font-size="14" font-style="normal" font-weight="normal" text-anchor="start" text-decoration="normal">2</text><text x="243" y="270" fill="#4D4DFF" fill-opacity="1" stroke="none" dominant-baseline="alphabetic" font-family="geogebra-sans-serif, sans-serif" font-size="14" font-style="normal" font-weight="normal" text-anchor="start" text-decoration="normal">2</text><path fill="#4D4DFF" fill-opacity="1" stroke="none" d="M 334 173.00000000000003 C 334 175.761423749154 331.76142374915395 178.00000000000003 329 178.00000000000003 C 326.23857625084605 178.00000000000003 324 175.761423749154 324 173.00000000000003 C 324 170.23857625084605 326.23857625084605 168.00000000000003 329 168.00000000000003 C 331.76142374915395 168.00000000000003 334 170.23857625084605 334 173.00000000000003 Z" paint-order="stroke fill markers"/><path fill="none" stroke="#000" stroke-linecap="round" stroke-linejoin="round" stroke-miterlimit="10" stroke-opacity="1" d="M 334 173.00000000000003 C 334 175.761423749154 331.76142374915395 178.00000000000003 329 178.00000000000003 C 326.23857625084605 178.00000000000003 324 175.761423749154 324 173.00000000000003 C 324 170.23857625084605 326.23857625084605 168.00000000000003 329 168.00000000000003 C 331.76142374915395 168.00000000000003 334 170.23857625084605 334 173.00000000000003 Z" paint-order="fill stroke markers"/><text x="333" y="163" fill="none" stroke="#FFF" stroke-linecap="round" stroke-linejoin="bevel" stroke-miterlimit="10" stroke-opacity="1" stroke-width="3" dominant-baseline="alphabetic" font-family="geogebra-sans-serif, sans-serif" font-size="16" font-style="normal" font-weight="normal" text-anchor="start" text-decoration="normal">u</text><text x="333" y="163" fill="#4D4DFF" fill-opacity="1" stroke="none" dominant-baseline="alphabetic" font-family="geogebra-sans-serif, sans-serif" font-size="16" font-style="normal" font-weight="normal" text-anchor="start" text-decoration="normal">u</text><text x="343" y="170" fill="none" stroke="#FFF" stroke-linecap="round" stroke-linejoin="bevel" stroke-miterlimit="10" stroke-opacity="1" stroke-width="3" dominant-baseline="alphabetic" font-family="geogebra-sans-serif, sans-serif" font-size="14" font-style="normal" font-weight="normal" text-anchor="start" text-decoration="normal">4</text><text x="343" y="170" fill="#4D4DFF" fill-opacity="1" stroke="none" dominant-baseline="alphabetic" font-family="geogebra-sans-serif, sans-serif" font-size="14" font-style="normal" font-weight="normal" text-anchor="start" text-decoration="normal">4</text><path fill="#4D4DFF" fill-opacity="1" stroke="none" d="M 234 73.00000000000003 C 234 75.76142374915399 231.76142374915398 78.00000000000003 229 78.00000000000003 C 226.23857625084602 78.00000000000003 224 75.76142374915399 224 73.00000000000003 C 224 70.23857625084607 226.23857625084602 68.00000000000003 229 68.00000000000003 C 231.76142374915398 68.00000000000003 234 70.23857625084607 234 73.00000000000003 Z" paint-order="stroke fill markers"/><path fill="none" stroke="#000" stroke-linecap="round" stroke-linejoin="round" stroke-miterlimit="10" stroke-opacity="1" d="M 234 73.00000000000003 C 234 75.76142374915399 231.76142374915398 78.00000000000003 229 78.00000000000003 C 226.23857625084602 78.00000000000003 224 75.76142374915399 224 73.00000000000003 C 224 70.23857625084607 226.23857625084602 68.00000000000003 229 68.00000000000003 C 231.76142374915398 68.00000000000003 234 70.23857625084607 234 73.00000000000003 Z" paint-order="fill stroke markers"/><text x="233" y="63" fill="none" stroke="#FFF" stroke-linecap="round" stroke-linejoin="bevel" stroke-miterlimit="10" stroke-opacity="1" stroke-width="3" dominant-baseline="alphabetic" font-family="geogebra-sans-serif, sans-serif" font-size="16" font-style="normal" font-weight="normal" text-anchor="start" text-decoration="normal">u</text><text x="233" y="63" fill="#4D4DFF" fill-opacity="1" stroke="none" dominant-baseline="alphabetic" font-family="geogebra-sans-serif, sans-serif" font-size="16" font-style="normal" font-weight="normal" text-anchor="start" text-decoration="normal">u</text><text x="243" y="70" fill="none" stroke="#FFF" stroke-linecap="round" stroke-linejoin="bevel" stroke-miterlimit="10" stroke-opacity="1" stroke-width="3" dominant-baseline="alphabetic" font-family="geogebra-sans-serif, sans-serif" font-size="14" font-style="normal" font-weight="normal" text-anchor="start" text-decoration="normal">3</text><text x="243" y="70" fill="#4D4DFF" fill-opacity="1" stroke="none" dominant-baseline="alphabetic" font-family="geogebra-sans-serif, sans-serif" font-size="14" font-style="normal" font-weight="normal" text-anchor="start" text-decoration="normal">3</text></g></g></svg>

<svg xmlns="http://www.w3.org/2000/svg" width="500" height="345"><defs><clipPath id="a"><path fill="none" d="M0 0h500v345H0V0Z"/></clipPath></defs><g clip-path="url(#a)"><path fill="#FFF" d="M0 0h500v345H0z"/><path fill="none" stroke="#000" stroke-linecap="round" stroke-linejoin="round" stroke-miterlimit="10" stroke-opacity=".698" stroke-width="2.5" d="m129 173 87.98 87.98" paint-order="fill stroke markers"/><path fill-opacity=".698" fill-rule="evenodd" d="m229 273-15.026-9.016 6.01-6.01Z" paint-order="stroke fill markers"/><text x="182" y="219" fill="none" stroke="#FFF" stroke-linecap="round" stroke-linejoin="bevel" stroke-miterlimit="10" stroke-width="3" dominant-baseline="alphabetic" font-family="geogebra-sans-serif, sans-serif" font-size="16" text-decoration="normal">y</text><text x="182" y="219" dominant-baseline="alphabetic" font-family="geogebra-sans-serif, sans-serif" font-size="16" text-decoration="normal">y</text><text x="191" y="226" fill="none" stroke="#FFF" stroke-linecap="round" stroke-linejoin="bevel" stroke-miterlimit="10" stroke-width="3" dominant-baseline="alphabetic" font-family="geogebra-sans-serif, sans-serif" font-size="14" text-decoration="normal">12</text><text x="191" y="226" dominant-baseline="alphabetic" font-family="geogebra-sans-serif, sans-serif" font-size="14" text-decoration="normal">12</text><path fill="none" stroke="#000" stroke-linecap="round" stroke-linejoin="round" stroke-miterlimit="10" stroke-opacity=".698" stroke-width="2.5" d="m229 273 87.98-87.98" paint-order="fill stroke markers"/><path fill-opacity=".698" fill-rule="evenodd" d="m329 173-9.016 15.026-6.01-6.01Z" paint-order="stroke fill markers"/><text x="275" y="219" fill="none" stroke="#FFF" stroke-linecap="round" stroke-linejoin="bevel" stroke-miterlimit="10" stroke-width="3" dominant-baseline="alphabetic" font-family="geogebra-sans-serif, sans-serif" font-size="16" text-decoration="normal">y</text><text x="275" y="219" dominant-baseline="alphabetic" font-family="geogebra-sans-serif, sans-serif" font-size="16" text-decoration="normal">y</text><text x="284" y="226" fill="none" stroke="#FFF" stroke-linecap="round" stroke-linejoin="bevel" stroke-miterlimit="10" stroke-width="3" dominant-baseline="alphabetic" font-family="geogebra-sans-serif, sans-serif" font-size="14" text-decoration="normal">24</text><text x="284" y="226" dominant-baseline="alphabetic" font-family="geogebra-sans-serif, sans-serif" font-size="14" text-decoration="normal">24</text><path fill="none" stroke="#000" stroke-linecap="round" stroke-linejoin="round" stroke-miterlimit="10" stroke-opacity=".698" stroke-width="2.5" d="m129 173 87.98-87.98" paint-order="fill stroke markers"/><path fill-opacity=".698" fill-rule="evenodd" d="m229 73-9.016 15.026-6.01-6.01Z" paint-order="stroke fill markers"/><text x="175" y="119" fill="none" stroke="#FFF" stroke-linecap="round" stroke-linejoin="bevel" stroke-miterlimit="10" stroke-width="3" dominant-baseline="alphabetic" font-family="geogebra-sans-serif, sans-serif" font-size="16" text-decoration="normal">y</text><text x="175" y="119" dominant-baseline="alphabetic" font-family="geogebra-sans-serif, sans-serif" font-size="16" text-decoration="normal">y</text><text x="184" y="126" fill="none" stroke="#FFF" stroke-linecap="round" stroke-linejoin="bevel" stroke-miterlimit="10" stroke-width="3" dominant-baseline="alphabetic" font-family="geogebra-sans-serif, sans-serif" font-size="14" text-decoration="normal">13</text><text x="184" y="126" dominant-baseline="alphabetic" font-family="geogebra-sans-serif, sans-serif" font-size="14" text-decoration="normal">13</text><path fill="none" stroke="#000" stroke-linecap="round" stroke-linejoin="round" stroke-miterlimit="10" stroke-opacity=".698" stroke-width="2.5" d="m229 73 87.98 87.98" paint-order="fill stroke markers"/><path fill-opacity=".698" fill-rule="evenodd" d="m329 173-15.026-9.016 6.01-6.01Z" paint-order="stroke fill markers"/><text x="282" y="119" fill="none" stroke="#FFF" stroke-linecap="round" stroke-linejoin="bevel" stroke-miterlimit="10" stroke-width="3" dominant-baseline="alphabetic" font-family="geogebra-sans-serif, sans-serif" font-size="16" text-decoration="normal">y</text><text x="282" y="119" dominant-baseline="alphabetic" font-family="geogebra-sans-serif, sans-serif" font-size="16" text-decoration="normal">y</text><text x="291" y="126" fill="none" stroke="#FFF" stroke-linecap="round" stroke-linejoin="bevel" stroke-miterlimit="10" stroke-width="3" dominant-baseline="alphabetic" font-family="geogebra-sans-serif, sans-serif" font-size="14" text-decoration="normal">34</text><text x="291" y="126" dominant-baseline="alphabetic" font-family="geogebra-sans-serif, sans-serif" font-size="14" text-decoration="normal">34</text><path fill="#4D4DFF" d="M134 173a5 5 0 1 1-10 0 5 5 0 0 1 10 0Z" paint-order="stroke fill markers"/><path fill="none" stroke="#000" stroke-linecap="round" stroke-linejoin="round" stroke-miterlimit="10" d="M134 173a5 5 0 1 1-10 0 5 5 0 0 1 10 0Z" paint-order="fill stroke markers"/><text x="133" y="163" fill="none" stroke="#FFF" stroke-linecap="round" stroke-linejoin="bevel" stroke-miterlimit="10" stroke-width="3" dominant-baseline="alphabetic" font-family="geogebra-sans-serif, sans-serif" font-size="16" text-decoration="normal">u</text><text x="133" y="163" fill="#4D4DFF" dominant-baseline="alphabetic" font-family="geogebra-sans-serif, sans-serif" font-size="16" text-decoration="normal">u</text><text x="143" y="170" fill="none" stroke="#FFF" stroke-linecap="round" stroke-linejoin="bevel" stroke-miterlimit="10" stroke-width="3" dominant-baseline="alphabetic" font-family="geogebra-sans-serif, sans-serif" font-size="14" text-decoration="normal">1</text><text x="143" y="170" fill="#4D4DFF" dominant-baseline="alphabetic" font-family="geogebra-sans-serif, sans-serif" font-size="14" text-decoration="normal">1</text><path fill="#4D4DFF" d="M234 273a5 5 0 1 1-10 0 5 5 0 0 1 10 0Z" paint-order="stroke fill markers"/><path fill="none" stroke="#000" stroke-linecap="round" stroke-linejoin="round" stroke-miterlimit="10" d="M234 273a5 5 0 1 1-10 0 5 5 0 0 1 10 0Z" paint-order="fill stroke markers"/><text x="233" y="263" fill="none" stroke="#FFF" stroke-linecap="round" stroke-linejoin="bevel" stroke-miterlimit="10" stroke-width="3" dominant-baseline="alphabetic" font-family="geogebra-sans-serif, sans-serif" font-size="16" text-decoration="normal">u</text><text x="233" y="263" fill="#4D4DFF" dominant-baseline="alphabetic" font-family="geogebra-sans-serif, sans-serif" font-size="16" text-decoration="normal">u</text><text x="243" y="270" fill="none" stroke="#FFF" stroke-linecap="round" stroke-linejoin="bevel" stroke-miterlimit="10" stroke-width="3" dominant-baseline="alphabetic" font-family="geogebra-sans-serif, sans-serif" font-size="14" text-decoration="normal">2</text><text x="243" y="270" fill="#4D4DFF" dominant-baseline="alphabetic" font-family="geogebra-sans-serif, sans-serif" font-size="14" text-decoration="normal">2</text><path fill="#4D4DFF" d="M334 173a5 5 0 1 1-10 0 5 5 0 0 1 10 0Z" paint-order="stroke fill markers"/><path fill="none" stroke="#000" stroke-linecap="round" stroke-linejoin="round" stroke-miterlimit="10" d="M334 173a5 5 0 1 1-10 0 5 5 0 0 1 10 0Z" paint-order="fill stroke markers"/><text x="333" y="163" fill="none" stroke="#FFF" stroke-linecap="round" stroke-linejoin="bevel" stroke-miterlimit="10" stroke-width="3" dominant-baseline="alphabetic" font-family="geogebra-sans-serif, sans-serif" font-size="16" text-decoration="normal">u</text><text x="333" y="163" fill="#4D4DFF" dominant-baseline="alphabetic" font-family="geogebra-sans-serif, sans-serif" font-size="16" text-decoration="normal">u</text><text x="343" y="170" fill="none" stroke="#FFF" stroke-linecap="round" stroke-linejoin="bevel" stroke-miterlimit="10" stroke-width="3" dominant-baseline="alphabetic" font-family="geogebra-sans-serif, sans-serif" font-size="14" text-decoration="normal">4</text><text x="343" y="170" fill="#4D4DFF" dominant-baseline="alphabetic" font-family="geogebra-sans-serif, sans-serif" font-size="14" text-decoration="normal">4</text><path fill="#4D4DFF" d="M234 73a5 5 0 1 1-10 0 5 5 0 0 1 10 0Z" paint-order="stroke fill markers"/><path fill="none" stroke="#000" stroke-linecap="round" stroke-linejoin="round" stroke-miterlimit="10" d="M234 73a5 5 0 1 1-10 0 5 5 0 0 1 10 0Z" paint-order="fill stroke markers"/><text x="233" y="63" fill="none" stroke="#FFF" stroke-linecap="round" stroke-linejoin="bevel" stroke-miterlimit="10" stroke-width="3" dominant-baseline="alphabetic" font-family="geogebra-sans-serif, sans-serif" font-size="16" text-decoration="normal">u</text><text x="233" y="63" fill="#4D4DFF" dominant-baseline="alphabetic" font-family="geogebra-sans-serif, sans-serif" font-size="16" text-decoration="normal">u</text><text x="243" y="70" fill="none" stroke="#FFF" stroke-linecap="round" stroke-linejoin="bevel" stroke-miterlimit="10" stroke-width="3" dominant-baseline="alphabetic" font-family="geogebra-sans-serif, sans-serif" font-size="14" text-decoration="normal">3</text><text x="243" y="70" fill="#4D4DFF" dominant-baseline="alphabetic" font-family="geogebra-sans-serif, sans-serif" font-size="14" text-decoration="normal">3</text></g></svg>
